X: 4
T: Angels We Have Heard on High   [C]
Z: John Chambers <jc:trillian.mit.edu>
M: 4/4
L: 1/4
K: C
|: "C(Am)"ee "(Em)"eg | "G7"g>f "C"e2 \
| ed eg | "G7"e>d "C"c2 :|
|: "C"g2 "A7"a/g/f/e/ | "Dm"f2 "G7"g/f/e/d/ \
| "C"e2 "F"f/e/d/c/ | "G7"d>G G2 \
| "C"c"G"d "C(Am)"e "F(Dm)"f | "C"e2 "G7"d2 :| "C"c4 |]

%%sep 1 1 500

